X: 4
T: Speed The Plough
R: reel
M: 4/4
L: 1/8
K: Gmaj
D | ~G3B dedB | degd egdB | cecA (3Bcd BG | FAAF GFEF |~G3B dedB | degd egdB | cecA B2BG |1 FAAF G3 :|2 FAAF G2|||: Bd|~g3f gdBd | (3fga bg egdB | cecA (3Bcd BG | FAAF gfef |~g3f gdBd | (3fga bg egdB |cecA (3Bcd BG |FAAF G2 :||


Tune 1191	Setting 14476

